icon-themes/sifr_svg/cmd/lc_diagramaxis.svg

<svg viewBox="0 0 24 24" xmlns="http://www.w3.org/2000/svg"><g fill="#555753"><path d="m4 1v17h-2v2h2v2h2v-2h17v-2h-17v-17z"/><path d="m2 2v2h2v-2zm0 4v2h2v-2zm0 4v2h2v-2zm0 4v2h2v-2zm6 6v2h2v-2zm4 0v2h2v-2zm4 0v2h2v-2zm4 0v2h2v-2z"/></g></svg>

<svg xmlns="http://www.w3.org/2000/svg" viewBox="0 0 24 24">
  <path
     style="fill:#555753"
     d="M 4 1 L 4 18 L 2 18 L 2 20 L 4 20 L 4 22 L 6 22 L 6 20 L 23 20 L 23 18 L 6 18 L 6 1 L 4 1 z "
     />
  <path
     style="fill:#555753"
     d="M 2 2 L 2 4 L 4 4 L 4 2 L 2 2 z M 2 6 L 2 8 L 4 8 L 4 6 L 2 6 z M 2 10 L 2 12 L 4 12 L 4 10 L 2 10 z M 2 14 L 2 16 L 4 16 L 4 14 L 2 14 z M 8 20 L 8 22 L 10 22 L 10 20 L 8 20 z M 12 20 L 12 22 L 14 22 L 14 20 L 12 20 z M 16 20 L 16 22 L 18 22 L 18 20 L 16 20 z M 20 20 L 20 22 L 22 22 L 22 20 L 20 20 z "
     />
</svg>
